X:1
T:[ID 2-40a]
T:[ID 2-40a]
T:Bezeichnung standardisiert: Menuett Men\"uet 5.
T:Urheber unbekannt Datum in der hier transkribierten schriftlichen Quelle: 1767
C:Urheber unbekannt
C:Datum in der hier transkribierten schriftlichen Quelle: 1767
L:1/8
M:3/4
K:C
V:1 treble 
V:1
 c2 e2 g2 | a4 fa | g4 eg | f2 d2 ed | c2 B2 c2 | Bd g4 | cABGA^F | G4 G,2 :: G2 G2 G2 | f4 e2 | %10
 _b4 a2 | fgfedc | BA G4 | c2 e2 g2 | a4 fa | g4 eg | f2 d2 dB |{B} c6 :| %18

